svg/latitude.svg

<svg xmlns="http://www.w3.org/2000/svg" viewBox="0 0 24 24"><path d="M12 2C6.5 2 2 6.5 2 12s4.5 10 10 10 10-4.5 10-10S17.5 2 12 2m0 2c3 0 5.5 1.6 6.9 4H5.1C6.5 5.6 9 4 12 4m0 16c-3 0-5.5-1.6-6.9-4h13.8c-1.4 2.4-3.9 4-6.9 4m-7.7-6c-.2-.6-.3-1.3-.3-2s.1-1.4.3-2h15.5c.2.6.3 1.3.3 2s-.1 1.4-.3 2z"/></svg>

<?xml version="1.0" encoding="UTF-8"?><!DOCTYPE svg PUBLIC "-//W3C//DTD SVG 1.1//EN" "http://www.w3.org/Graphics/SVG/1.1/DTD/svg11.dtd"><svg xmlns="http://www.w3.org/2000/svg" xmlns:xlink="http://www.w3.org/1999/xlink" version="1.1" id="mdi-latitude" width="24" height="24" viewBox="0 0 24 24"><path d="M12 2C6.5 2 2 6.5 2 12S6.5 22 12 22 22 17.5 22 12 17.5 2 12 2M12 4C15 4 17.5 5.6 18.9 8H5.1C6.5 5.6 9 4 12 4M12 20C9 20 6.5 18.4 5.1 16H18.9C17.5 18.4 15 20 12 20M4.3 14C4.1 13.4 4 12.7 4 12S4.1 10.6 4.3 10H19.8C20 10.6 20.1 11.3 20.1 12S20 13.4 19.8 14H4.3Z" /></svg>
